X: 3262
M: 6/8
L: 1/8
K: G
uD |\
vG2vG GBd | g2d dgf | e2d c2B | ABG FED |\
|: d |\
b2b b2a | g2g g2d | e2d efg | a2g fed |\
b2b b2a | g2g g2d | efg dBG | A3 G2 :|


